X: 677
T: Sheng ge
L: 1/8
M: 2/4
K: D
e4- [I:setbarnb 1]| 
e4 | 
e d/ e/ d B/ A/ | 
A4 | 
e3d | 
d2B A | 
d> e B A | 
A2z2 | 
e2d2 | 
d2B A | 
d e B A | 
A2z2 | 
e e e c/ d/ | 
e e e/ d/ z | 
d2z2 | 
d e B A | 
A2z2 | 
d2B A | 
A2z2 | 
d e B A | 
A2z2 | 
e> e e d | 
d2B A | 
d> B B A | 
A2z2 |]

@@@ Tune index: 9551
